X:96
T:Farewell to Connaught
Z: id:dc-reel-89
M:C
L:1/8
K:D Mixolydian
D2ED EGAB|cBcd c2AG|Add^c d2cd|ed^cd edd2|!
D2ED EGAB|cBcd c2AG|AcAG EGAB|cAGE EDD2:|!
eggf g2ed|cded cAA2|eaa^g a3=g|eaab aged|!
eggf g2ed|cded cAAG|ABAG EGAB|cAGE EDD2:|!

